X:3
T:Rights of Man, The
R:hornpipe
C:James Hill, Northumberland ()
D:De Dannan: Ballroom
Z:id:hn-hornpipe-3
M:C|
K:Em
GA|BcAB GAFG|EFGA ~B2ef|gfed ed(3Bcd|cBAG A2GA|
BcAB GAFG|EFGA ~B2ef|gfed Bgfg|e2E2 E2:|
|:ga|babg efga|babg egfe|d2d^c defg|afdf afgf|
e^def gfga|(3bag af gfef|gfed Bgfg|e2E2 E2:|
